X: 22012
T: Lango Lee
B:RSCDS 22-1
R:Jig
Z:Bruce Shawyer
K:G
M:6/8
L:1/16
|: D2 | D3EF2 G3AB2 | c3ed2 c2B2A2 | B2G2E2 D2G2A2 | B3cA2 G4D2 |
D3EF2 G3AB2 | c3ed2 c2B2A2 | B2G2E2 D2G2A2 | B3cA2 G4c2 |
B4c2d4d2 | e3dc2 d2B2G2 | B2c2d2 e2f2g2 | G3AG2 F2E2D2 |
c2e2c2 B2d2B2 | A3GA2 B2G2E2 | G2F2E2 D2d2c2 | B3cA2 G4 :|
%%center Book22/22011-Lango_Lee-BS.abc

%%sep 1 1 500
%%sep 1 1 500
